; Generated by OpenAxis
; Process: additive
; Material: unknown
; Total layers: 20
; Layer height: 0.5 mm
; Total length: 2200.00 mm
; Estimated time: 50.0 seconds
;
; Initialization
G90  ; Absolute positioning
M83  ; Relative extrusion
G28  ; Home all axes
G92 E0  ; Reset extruder position
M107  ; Turn off fans

; PERIMETER - Layer 0
G0 X-5.000 Y-5.000 Z0.000
G1 X5.000 Y-5.000 Z0.000 E4.00000 F2400
G1 X5.000 Y5.000 Z0.000 E4.00000 F2400
G1 X-5.000 Y5.000 Z0.000 E4.00000 F2400
G1 X-5.000 Y-5.000 Z0.000 E4.00000 F2400
G1 X-5.000 Y-5.000 Z0.000 E0.00000 F2400

; PERIMETER - Layer 0
G0 X-5.000 Y-5.000 Z0.000
G1 X5.000 Y-5.000 Z0.000 E4.00000 F2400
G1 X5.000 Y5.000 Z0.000 E4.00000 F2400
G1 X-5.000 Y5.000 Z0.000 E4.00000 F2400
G1 X-5.000 Y-5.000 Z0.000 E4.00000 F2400
G1 X-5.000 Y-5.000 Z0.000 E0.00000 F2400

; INFILL - Layer 0
G0 X-5.000 Y-5.000 Z0.000
G1 X5.000 Y-5.000 Z0.000 E4.00000 F3600

; INFILL - Layer 0
G0 X-5.000 Y-1.000 Z0.000
G1 X5.000 Y-1.000 Z0.000 E4.00000 F3600

; INFILL - Layer 0
G0 X-5.000 Y3.000 Z0.000
G1 X5.000 Y3.000 Z0.000 E4.00000 F3600

; PERIMETER - Layer 1
G0 X-3.875 Y-3.875 Z0.500
G1 X-3.375 Y-3.875 Z0.500 E0.20000 F2400
G1 X6.125 Y-3.875 Z0.500 E3.80000 F2400
G1 X6.125 Y-3.375 Z0.500 E0.20000 F2400
G1 X6.125 Y6.125 Z0.500 E3.80000 F2400
G1 X-3.375 Y6.125 Z0.500 E3.80000 F2400
G1 X-3.875 Y6.125 Z0.500 E0.20000 F2400
G1 X-3.875 Y-3.375 Z0.500 E3.80000 F2400
G1 X-3.875 Y-3.875 Z0.500 E0.20000 F2400
G1 X-3.875 Y-3.875 Z0.500 E0.00000 F2400

; PERIMETER - Layer 1
G0 X-3.875 Y-3.875 Z0.500
G1 X-3.375 Y-3.875 Z0.500 E0.20000 F2400
G1 X6.125 Y-3.875 Z0.500 E3.80000 F2400
G1 X6.125 Y-3.375 Z0.500 E0.20000 F2400
G1 X6.125 Y6.125 Z0.500 E3.80000 F2400
G1 X-3.375 Y6.125 Z0.500 E3.80000 F2400
G1 X-3.875 Y6.125 Z0.500 E0.20000 F2400
G1 X-3.875 Y-3.375 Z0.500 E3.80000 F2400
G1 X-3.875 Y-3.875 Z0.500 E0.20000 F2400
G1 X-3.875 Y-3.875 Z0.500 E0.00000 F2400

; INFILL - Layer 1
G0 X-3.875 Y-3.875 Z0.500
G1 X-3.875 Y6.125 Z0.500 E4.00000 F3600

; INFILL - Layer 1
G0 X0.125 Y-3.875 Z0.500
G1 X0.125 Y6.125 Z0.500 E4.00000 F3600

; INFILL - Layer 1
G0 X4.125 Y-3.875 Z0.500
G1 X4.125 Y6.125 Z0.500 E4.00000 F3600

; PERIMETER - Layer 2
G0 X-4.000 Y-4.000 Z1.000
G1 X-3.000 Y-4.000 Z1.000 E0.40000 F2400
G1 X6.000 Y-4.000 Z1.000 E3.60000 F2400
G1 X6.000 Y-3.000 Z1.000 E0.40000 F2400
G1 X6.000 Y6.000 Z1.000 E3.60000 F2400
G1 X-3.000 Y6.000 Z1.000 E3.60000 F2400
G1 X-4.000 Y6.000 Z1.000 E0.40000 F2400
G1 X-4.000 Y-3.000 Z1.000 E3.60000 F2400
G1 X-4.000 Y-4.000 Z1.000 E0.40000 F2400
G1 X-4.000 Y-4.000 Z1.000 E0.00000 F2400

; PERIMETER - Layer 2
G0 X-4.000 Y-4.000 Z1.000
G1 X-3.000 Y-4.000 Z1.000 E0.40000 F2400
G1 X6.000 Y-4.000 Z1.000 E3.60000 F2400
G1 X6.000 Y-3.000 Z1.000 E0.40000 F2400
G1 X6.000 Y6.000 Z1.000 E3.60000 F2400
G1 X-3.000 Y6.000 Z1.000 E3.60000 F2400
G1 X-4.000 Y6.000 Z1.000 E0.40000 F2400
G1 X-4.000 Y-3.000 Z1.000 E3.60000 F2400
G1 X-4.000 Y-4.000 Z1.000 E0.40000 F2400
G1 X-4.000 Y-4.000 Z1.000 E0.00000 F2400

; INFILL - Layer 2
G0 X-4.000 Y-4.000 Z1.000
G1 X6.000 Y-4.000 Z1.000 E4.00000 F3600

; INFILL - Layer 2
G0 X-4.000 Y0.000 Z1.000
G1 X6.000 Y0.000 Z1.000 E4.00000 F3600

; INFILL - Layer 2
G0 X-4.000 Y4.000 Z1.000
G1 X6.000 Y4.000 Z1.000 E4.00000 F3600

; PERIMETER - Layer 3
G0 X-4.125 Y-4.125 Z1.500
G1 X-2.625 Y-4.125 Z1.500 E0.60000 F2400
G1 X5.875 Y-4.125 Z1.500 E3.40000 F2400
G1 X5.875 Y-2.625 Z1.500 E0.60000 F2400
G1 X5.875 Y5.875 Z1.500 E3.40000 F2400
G1 X-2.625 Y5.875 Z1.500 E3.40000 F2400
G1 X-4.125 Y5.875 Z1.500 E0.60000 F2400
G1 X-4.125 Y-2.625 Z1.500 E3.40000 F2400
G1 X-4.125 Y-4.125 Z1.500 E0.60000 F2400
G1 X-4.125 Y-4.125 Z1.500 E0.00000 F2400

; PERIMETER - Layer 3
G0 X-4.125 Y-4.125 Z1.500
G1 X-2.625 Y-4.125 Z1.500 E0.60000 F2400
G1 X5.875 Y-4.125 Z1.500 E3.40000 F2400
G1 X5.875 Y-2.625 Z1.500 E0.60000 F2400
G1 X5.875 Y5.875 Z1.500 E3.40000 F2400
G1 X-2.625 Y5.875 Z1.500 E3.40000 F2400
G1 X-4.125 Y5.875 Z1.500 E0.60000 F2400
G1 X-4.125 Y-2.625 Z1.500 E3.40000 F2400
G1 X-4.125 Y-4.125 Z1.500 E0.60000 F2400
G1 X-4.125 Y-4.125 Z1.500 E0.00000 F2400

; INFILL - Layer 3
G0 X-4.125 Y-4.125 Z1.500
G1 X-4.125 Y5.875 Z1.500 E4.00000 F3600

; INFILL - Layer 3
G0 X-0.125 Y-4.125 Z1.500
G1 X-0.125 Y5.875 Z1.500 E4.00000 F3600

; INFILL - Layer 3
G0 X3.875 Y-4.125 Z1.500
G1 X3.875 Y5.875 Z1.500 E4.00000 F3600

; PERIMETER - Layer 4
G0 X-4.250 Y-4.250 Z2.000
G1 X-2.250 Y-4.250 Z2.000 E0.80000 F2400
G1 X5.750 Y-4.250 Z2.000 E3.20000 F2400
G1 X5.750 Y-2.250 Z2.000 E0.80000 F2400
G1 X5.750 Y5.750 Z2.000 E3.20000 F2400
G1 X-2.250 Y5.750 Z2.000 E3.20000 F2400
G1 X-4.250 Y5.750 Z2.000 E0.80000 F2400
G1 X-4.250 Y-2.250 Z2.000 E3.20000 F2400
G1 X-4.250 Y-4.250 Z2.000 E0.80000 F2400
G1 X-4.250 Y-4.250 Z2.000 E0.00000 F2400

; PERIMETER - Layer 4
G0 X-4.250 Y-4.250 Z2.000
G1 X-2.250 Y-4.250 Z2.000 E0.80000 F2400
G1 X5.750 Y-4.250 Z2.000 E3.20000 F2400
G1 X5.750 Y-2.250 Z2.000 E0.80000 F2400
G1 X5.750 Y5.750 Z2.000 E3.20000 F2400
G1 X-2.250 Y5.750 Z2.000 E3.20000 F2400
G1 X-4.250 Y5.750 Z2.000 E0.80000 F2400
G1 X-4.250 Y-2.250 Z2.000 E3.20000 F2400
G1 X-4.250 Y-4.250 Z2.000 E0.80000 F2400
G1 X-4.250 Y-4.250 Z2.000 E0.00000 F2400

; INFILL - Layer 4
G0 X-4.250 Y-4.250 Z2.000
G1 X5.750 Y-4.250 Z2.000 E4.00000 F3600

; INFILL - Layer 4
G0 X-4.250 Y-0.250 Z2.000
G1 X5.750 Y-0.250 Z2.000 E4.00000 F3600

; INFILL - Layer 4
G0 X-4.250 Y3.750 Z2.000
G1 X5.750 Y3.750 Z2.000 E4.00000 F3600

; PERIMETER - Layer 5
G0 X-4.375 Y-4.375 Z2.500
G1 X-1.875 Y-4.375 Z2.500 E1.00000 F2400
G1 X5.625 Y-4.375 Z2.500 E3.00000 F2400
G1 X5.625 Y-1.875 Z2.500 E1.00000 F2400
G1 X5.625 Y5.625 Z2.500 E3.00000 F2400
G1 X-1.875 Y5.625 Z2.500 E3.00000 F2400
G1 X-4.375 Y5.625 Z2.500 E1.00000 F2400
G1 X-4.375 Y-1.875 Z2.500 E3.00000 F2400
G1 X-4.375 Y-4.375 Z2.500 E1.00000 F2400
G1 X-4.375 Y-4.375 Z2.500 E0.00000 F2400

; PERIMETER - Layer 5
G0 X-4.375 Y-4.375 Z2.500
G1 X-1.875 Y-4.375 Z2.500 E1.00000 F2400
G1 X5.625 Y-4.375 Z2.500 E3.00000 F2400
G1 X5.625 Y-1.875 Z2.500 E1.00000 F2400
G1 X5.625 Y5.625 Z2.500 E3.00000 F2400
G1 X-1.875 Y5.625 Z2.500 E3.00000 F2400
G1 X-4.375 Y5.625 Z2.500 E1.00000 F2400
G1 X-4.375 Y-1.875 Z2.500 E3.00000 F2400
G1 X-4.375 Y-4.375 Z2.500 E1.00000 F2400
G1 X-4.375 Y-4.375 Z2.500 E0.00000 F2400

; INFILL - Layer 5
G0 X-4.375 Y-4.375 Z2.500
G1 X-4.375 Y5.625 Z2.500 E4.00000 F3600

; INFILL - Layer 5
G0 X-0.375 Y-4.375 Z2.500
G1 X-0.375 Y5.625 Z2.500 E4.00000 F3600

; INFILL - Layer 5
G0 X3.625 Y-4.375 Z2.500
G1 X3.625 Y5.625 Z2.500 E4.00000 F3600

; PERIMETER - Layer 6
G0 X-4.500 Y-4.500 Z3.000
G1 X-1.500 Y-4.500 Z3.000 E1.20000 F2400
G1 X5.500 Y-4.500 Z3.000 E2.80000 F2400
G1 X5.500 Y-1.500 Z3.000 E1.20000 F2400
G1 X5.500 Y5.500 Z3.000 E2.80000 F2400
G1 X-1.500 Y5.500 Z3.000 E2.80000 F2400
G1 X-4.500 Y5.500 Z3.000 E1.20000 F2400
G1 X-4.500 Y-1.500 Z3.000 E2.80000 F2400
G1 X-4.500 Y-4.500 Z3.000 E1.20000 F2400
G1 X-4.500 Y-4.500 Z3.000 E0.00000 F2400

; PERIMETER - Layer 6
G0 X-4.500 Y-4.500 Z3.000
G1 X-1.500 Y-4.500 Z3.000 E1.20000 F2400
G1 X5.500 Y-4.500 Z3.000 E2.80000 F2400
G1 X5.500 Y-1.500 Z3.000 E1.20000 F2400
G1 X5.500 Y5.500 Z3.000 E2.80000 F2400
G1 X-1.500 Y5.500 Z3.000 E2.80000 F2400
G1 X-4.500 Y5.500 Z3.000 E1.20000 F2400
G1 X-4.500 Y-1.500 Z3.000 E2.80000 F2400
G1 X-4.500 Y-4.500 Z3.000 E1.20000 F2400
G1 X-4.500 Y-4.500 Z3.000 E0.00000 F2400

; INFILL - Layer 6
G0 X-4.500 Y-4.500 Z3.000
G1 X5.500 Y-4.500 Z3.000 E4.00000 F3600

; INFILL - Layer 6
G0 X-4.500 Y-0.500 Z3.000
G1 X5.500 Y-0.500 Z3.000 E4.00000 F3600

; INFILL - Layer 6
G0 X-4.500 Y3.500 Z3.000
G1 X5.500 Y3.500 Z3.000 E4.00000 F3600

; PERIMETER - Layer 7
G0 X-4.625 Y-4.625 Z3.500
G1 X-1.125 Y-4.625 Z3.500 E1.40000 F2400
G1 X5.375 Y-4.625 Z3.500 E2.60000 F2400
G1 X5.375 Y-1.125 Z3.500 E1.40000 F2400
G1 X5.375 Y5.375 Z3.500 E2.60000 F2400
G1 X-1.125 Y5.375 Z3.500 E2.60000 F2400
G1 X-4.625 Y5.375 Z3.500 E1.40000 F2400
G1 X-4.625 Y-1.125 Z3.500 E2.60000 F2400
G1 X-4.625 Y-4.625 Z3.500 E1.40000 F2400
G1 X-4.625 Y-4.625 Z3.500 E0.00000 F2400

; PERIMETER - Layer 7
G0 X-4.625 Y-4.625 Z3.500
G1 X-1.125 Y-4.625 Z3.500 E1.40000 F2400
G1 X5.375 Y-4.625 Z3.500 E2.60000 F2400
G1 X5.375 Y-1.125 Z3.500 E1.40000 F2400
G1 X5.375 Y5.375 Z3.500 E2.60000 F2400
G1 X-1.125 Y5.375 Z3.500 E2.60000 F2400
G1 X-4.625 Y5.375 Z3.500 E1.40000 F2400
G1 X-4.625 Y-1.125 Z3.500 E2.60000 F2400
G1 X-4.625 Y-4.625 Z3.500 E1.40000 F2400
G1 X-4.625 Y-4.625 Z3.500 E0.00000 F2400

; INFILL - Layer 7
G0 X-4.625 Y-4.625 Z3.500
G1 X-4.625 Y5.375 Z3.500 E4.00000 F3600

; INFILL - Layer 7
G0 X-0.625 Y-4.625 Z3.500
G1 X-0.625 Y5.375 Z3.500 E4.00000 F3600

; INFILL - Layer 7
G0 X3.375 Y-4.625 Z3.500
G1 X3.375 Y5.375 Z3.500 E4.00000 F3600

; PERIMETER - Layer 8
G0 X-4.750 Y-4.750 Z4.000
G1 X-0.750 Y-4.750 Z4.000 E1.60000 F2400
G1 X5.250 Y-4.750 Z4.000 E2.40000 F2400
G1 X5.250 Y-0.750 Z4.000 E1.60000 F2400
G1 X5.250 Y5.250 Z4.000 E2.40000 F2400
G1 X-0.750 Y5.250 Z4.000 E2.40000 F2400
G1 X-4.750 Y5.250 Z4.000 E1.60000 F2400
G1 X-4.750 Y-0.750 Z4.000 E2.40000 F2400
G1 X-4.750 Y-4.750 Z4.000 E1.60000 F2400
G1 X-4.750 Y-4.750 Z4.000 E0.00000 F2400

; PERIMETER - Layer 8
G0 X-4.750 Y-4.750 Z4.000
G1 X-0.750 Y-4.750 Z4.000 E1.60000 F2400
G1 X5.250 Y-4.750 Z4.000 E2.40000 F2400
G1 X5.250 Y-0.750 Z4.000 E1.60000 F2400
G1 X5.250 Y5.250 Z4.000 E2.40000 F2400
G1 X-0.750 Y5.250 Z4.000 E2.40000 F2400
G1 X-4.750 Y5.250 Z4.000 E1.60000 F2400
G1 X-4.750 Y-0.750 Z4.000 E2.40000 F2400
G1 X-4.750 Y-4.750 Z4.000 E1.60000 F2400
G1 X-4.750 Y-4.750 Z4.000 E0.00000 F2400

; INFILL - Layer 8
G0 X-4.750 Y-4.750 Z4.000
G1 X5.250 Y-4.750 Z4.000 E4.00000 F3600

; INFILL - Layer 8
G0 X-4.750 Y-0.750 Z4.000
G1 X5.250 Y-0.750 Z4.000 E4.00000 F3600

; INFILL - Layer 8
G0 X-4.750 Y3.250 Z4.000
G1 X5.250 Y3.250 Z4.000 E4.00000 F3600

; PERIMETER - Layer 9
G0 X-4.875 Y-4.875 Z4.500
G1 X-0.375 Y-4.875 Z4.500 E1.80000 F2400
G1 X5.125 Y-4.875 Z4.500 E2.20000 F2400
G1 X5.125 Y-0.375 Z4.500 E1.80000 F2400
G1 X5.125 Y5.125 Z4.500 E2.20000 F2400
G1 X-0.375 Y5.125 Z4.500 E2.20000 F2400
G1 X-4.875 Y5.125 Z4.500 E1.80000 F2400
G1 X-4.875 Y-0.375 Z4.500 E2.20000 F2400
G1 X-4.875 Y-4.875 Z4.500 E1.80000 F2400
G1 X-4.875 Y-4.875 Z4.500 E0.00000 F2400

; PERIMETER - Layer 9
G0 X-4.875 Y-4.875 Z4.500
G1 X-0.375 Y-4.875 Z4.500 E1.80000 F2400
G1 X5.125 Y-4.875 Z4.500 E2.20000 F2400
G1 X5.125 Y-0.375 Z4.500 E1.80000 F2400
G1 X5.125 Y5.125 Z4.500 E2.20000 F2400
G1 X-0.375 Y5.125 Z4.500 E2.20000 F2400
G1 X-4.875 Y5.125 Z4.500 E1.80000 F2400
G1 X-4.875 Y-0.375 Z4.500 E2.20000 F2400
G1 X-4.875 Y-4.875 Z4.500 E1.80000 F2400
G1 X-4.875 Y-4.875 Z4.500 E0.00000 F2400

; INFILL - Layer 9
G0 X-4.875 Y-4.875 Z4.500
G1 X-4.875 Y5.125 Z4.500 E4.00000 F3600

; INFILL - Layer 9
G0 X-0.875 Y-4.875 Z4.500
G1 X-0.875 Y5.125 Z4.500 E4.00000 F3600

; INFILL - Layer 9
G0 X3.125 Y-4.875 Z4.500
G1 X3.125 Y5.125 Z4.500 E4.00000 F3600

; PERIMETER - Layer 10
G0 X-5.000 Y-5.000 Z5.000
G1 X0.000 Y-5.000 Z5.000 E2.00000 F2400
G1 X5.000 Y-5.000 Z5.000 E2.00000 F2400
G1 X5.000 Y0.000 Z5.000 E2.00000 F2400
G1 X5.000 Y5.000 Z5.000 E2.00000 F2400
G1 X0.000 Y5.000 Z5.000 E2.00000 F2400
G1 X-5.000 Y5.000 Z5.000 E2.00000 F2400
G1 X-5.000 Y0.000 Z5.000 E2.00000 F2400
G1 X-5.000 Y-5.000 Z5.000 E2.00000 F2400
G1 X-5.000 Y-5.000 Z5.000 E0.00000 F2400

; PERIMETER - Layer 10
G0 X-5.000 Y-5.000 Z5.000
G1 X0.000 Y-5.000 Z5.000 E2.00000 F2400
G1 X5.000 Y-5.000 Z5.000 E2.00000 F2400
G1 X5.000 Y0.000 Z5.000 E2.00000 F2400
G1 X5.000 Y5.000 Z5.000 E2.00000 F2400
G1 X0.000 Y5.000 Z5.000 E2.00000 F2400
G1 X-5.000 Y5.000 Z5.000 E2.00000 F2400
G1 X-5.000 Y0.000 Z5.000 E2.00000 F2400
G1 X-5.000 Y-5.000 Z5.000 E2.00000 F2400
G1 X-5.000 Y-5.000 Z5.000 E0.00000 F2400

; INFILL - Layer 10
G0 X-5.000 Y-5.000 Z5.000
G1 X5.000 Y-5.000 Z5.000 E4.00000 F3600

; INFILL - Layer 10
G0 X-5.000 Y-1.000 Z5.000
G1 X5.000 Y-1.000 Z5.000 E4.00000 F3600

; INFILL - Layer 10
G0 X-5.000 Y3.000 Z5.000
G1 X5.000 Y3.000 Z5.000 E4.00000 F3600

; PERIMETER - Layer 11
G0 X-5.125 Y-5.125 Z5.500
G1 X0.375 Y-5.125 Z5.500 E2.20000 F2400
G1 X4.875 Y-5.125 Z5.500 E1.80000 F2400
G1 X4.875 Y0.375 Z5.500 E2.20000 F2400
G1 X4.875 Y4.875 Z5.500 E1.80000 F2400
G1 X0.375 Y4.875 Z5.500 E1.80000 F2400
G1 X-5.125 Y4.875 Z5.500 E2.20000 F2400
G1 X-5.125 Y0.375 Z5.500 E1.80000 F2400
G1 X-5.125 Y-5.125 Z5.500 E2.20000 F2400
G1 X-5.125 Y-5.125 Z5.500 E0.00000 F2400

; PERIMETER - Layer 11
G0 X-5.125 Y-5.125 Z5.500
G1 X0.375 Y-5.125 Z5.500 E2.20000 F2400
G1 X4.875 Y-5.125 Z5.500 E1.80000 F2400
G1 X4.875 Y0.375 Z5.500 E2.20000 F2400
G1 X4.875 Y4.875 Z5.500 E1.80000 F2400
G1 X0.375 Y4.875 Z5.500 E1.80000 F2400
G1 X-5.125 Y4.875 Z5.500 E2.20000 F2400
G1 X-5.125 Y0.375 Z5.500 E1.80000 F2400
G1 X-5.125 Y-5.125 Z5.500 E2.20000 F2400
G1 X-5.125 Y-5.125 Z5.500 E0.00000 F2400

; INFILL - Layer 11
G0 X-5.125 Y-5.125 Z5.500
G1 X-5.125 Y4.875 Z5.500 E4.00000 F3600

; INFILL - Layer 11
G0 X-1.125 Y-5.125 Z5.500
G1 X-1.125 Y4.875 Z5.500 E4.00000 F3600

; INFILL - Layer 11
G0 X2.875 Y-5.125 Z5.500
G1 X2.875 Y4.875 Z5.500 E4.00000 F3600

; PERIMETER - Layer 12
G0 X-5.250 Y-5.250 Z6.000
G1 X0.750 Y-5.250 Z6.000 E2.40000 F2400
G1 X4.750 Y-5.250 Z6.000 E1.60000 F2400
G1 X4.750 Y0.750 Z6.000 E2.40000 F2400
G1 X4.750 Y4.750 Z6.000 E1.60000 F2400
G1 X0.750 Y4.750 Z6.000 E1.60000 F2400
G1 X-5.250 Y4.750 Z6.000 E2.40000 F2400
G1 X-5.250 Y0.750 Z6.000 E1.60000 F2400
G1 X-5.250 Y-5.250 Z6.000 E2.40000 F2400
G1 X-5.250 Y-5.250 Z6.000 E0.00000 F2400

; PERIMETER - Layer 12
G0 X-5.250 Y-5.250 Z6.000
G1 X0.750 Y-5.250 Z6.000 E2.40000 F2400
G1 X4.750 Y-5.250 Z6.000 E1.60000 F2400
G1 X4.750 Y0.750 Z6.000 E2.40000 F2400
G1 X4.750 Y4.750 Z6.000 E1.60000 F2400
G1 X0.750 Y4.750 Z6.000 E1.60000 F2400
G1 X-5.250 Y4.750 Z6.000 E2.40000 F2400
G1 X-5.250 Y0.750 Z6.000 E1.60000 F2400
G1 X-5.250 Y-5.250 Z6.000 E2.40000 F2400
G1 X-5.250 Y-5.250 Z6.000 E0.00000 F2400

; INFILL - Layer 12
G0 X-5.250 Y-5.250 Z6.000
G1 X4.750 Y-5.250 Z6.000 E4.00000 F3600

; INFILL - Layer 12
G0 X-5.250 Y-1.250 Z6.000
G1 X4.750 Y-1.250 Z6.000 E4.00000 F3600

; INFILL - Layer 12
G0 X-5.250 Y2.750 Z6.000
G1 X4.750 Y2.750 Z6.000 E4.00000 F3600

; PERIMETER - Layer 13
G0 X-5.375 Y-5.375 Z6.500
G1 X1.125 Y-5.375 Z6.500 E2.60000 F2400
G1 X4.625 Y-5.375 Z6.500 E1.40000 F2400
G1 X4.625 Y1.125 Z6.500 E2.60000 F2400
G1 X4.625 Y4.625 Z6.500 E1.40000 F2400
G1 X1.125 Y4.625 Z6.500 E1.40000 F2400
G1 X-5.375 Y4.625 Z6.500 E2.60000 F2400
G1 X-5.375 Y1.125 Z6.500 E1.40000 F2400
G1 X-5.375 Y-5.375 Z6.500 E2.60000 F2400
G1 X-5.375 Y-5.375 Z6.500 E0.00000 F2400

; PERIMETER - Layer 13
G0 X-5.375 Y-5.375 Z6.500
G1 X1.125 Y-5.375 Z6.500 E2.60000 F2400
G1 X4.625 Y-5.375 Z6.500 E1.40000 F2400
G1 X4.625 Y1.125 Z6.500 E2.60000 F2400
G1 X4.625 Y4.625 Z6.500 E1.40000 F2400
G1 X1.125 Y4.625 Z6.500 E1.40000 F2400
G1 X-5.375 Y4.625 Z6.500 E2.60000 F2400
G1 X-5.375 Y1.125 Z6.500 E1.40000 F2400
G1 X-5.375 Y-5.375 Z6.500 E2.60000 F2400
G1 X-5.375 Y-5.375 Z6.500 E0.00000 F2400

; INFILL - Layer 13
G0 X-5.375 Y-5.375 Z6.500
G1 X-5.375 Y4.625 Z6.500 E4.00000 F3600

; INFILL - Layer 13
G0 X-1.375 Y-5.375 Z6.500
G1 X-1.375 Y4.625 Z6.500 E4.00000 F3600

; INFILL - Layer 13
G0 X2.625 Y-5.375 Z6.500
G1 X2.625 Y4.625 Z6.500 E4.00000 F3600

; PERIMETER - Layer 14
G0 X-5.500 Y-5.500 Z7.000
G1 X1.500 Y-5.500 Z7.000 E2.80000 F2400
G1 X4.500 Y-5.500 Z7.000 E1.20000 F2400
G1 X4.500 Y1.500 Z7.000 E2.80000 F2400
G1 X4.500 Y4.500 Z7.000 E1.20000 F2400
G1 X1.500 Y4.500 Z7.000 E1.20000 F2400
G1 X-5.500 Y4.500 Z7.000 E2.80000 F2400
G1 X-5.500 Y1.500 Z7.000 E1.20000 F2400
G1 X-5.500 Y-5.500 Z7.000 E2.80000 F2400
G1 X-5.500 Y-5.500 Z7.000 E0.00000 F2400

; PERIMETER - Layer 14
G0 X-5.500 Y-5.500 Z7.000
G1 X1.500 Y-5.500 Z7.000 E2.80000 F2400
G1 X4.500 Y-5.500 Z7.000 E1.20000 F2400
G1 X4.500 Y1.500 Z7.000 E2.80000 F2400
G1 X4.500 Y4.500 Z7.000 E1.20000 F2400
G1 X1.500 Y4.500 Z7.000 E1.20000 F2400
G1 X-5.500 Y4.500 Z7.000 E2.80000 F2400
G1 X-5.500 Y1.500 Z7.000 E1.20000 F2400
G1 X-5.500 Y-5.500 Z7.000 E2.80000 F2400
G1 X-5.500 Y-5.500 Z7.000 E0.00000 F2400

; INFILL - Layer 14
G0 X-5.500 Y-5.500 Z7.000
G1 X4.500 Y-5.500 Z7.000 E4.00000 F3600

